!!!!SEGMENT: pl-wru--50044-muz--001-016_buchner-philipp-friedrich--plectrum-musicum-sonata-xvi.krn
!!!cenid: 16xx:1817
!!!COM: Buchner, Philipp Friedrich
!!!COM-rismID: pe30013776
!!!CDT: 1614/09/10-1669/03/23
!!!CNT: German
!!!GTL: Plectrum musicum
!!!OTL: Sonata XVI
!!!OMV: 016
!!!PDT: 1662
!!!AGN:
!!!YEC: Copyright 2022 Narodowy Instytut Fryderyka Chopina (https://polishscores.org)
!!!YEM: License CC-BY-4.0 (https://creativecommons.org/licenses/by/4.0)
!!!SMS-siglum: PL-WRu
!!!SMS-shelfmark: 50044 Muz.
!!!SMS-shelfwork: 001-016 G
!!!SMS-variant:
!!!SMS-altvar:
!!!NIFC-rismSourceID: 990007465
!!!NIFC-rismChildID: 990007465
!!!NIFC-islandoraID: none
!!!URL-pdf-islandora:
!!!URL-scan: https://www.bibliotekacyfrowa.pl/dlibra/doccontent?id=116 @EN{Scan on Digital Library of University of Wroclaw} @PL{Skany w portalu Biblioteka Cyfrowa Uniwersytetu Wrocławskiego}
!!!IIIF:
!!!ONB-nifc: UWAGA: Violino I: s. 15, Violino II: s. 28-29, Fagotto: s. 59-60, Bassus: s. 74, Bassus continuus: s. 89
!!!AIN: 1 fagot 2 violn
!!!key: d
**kern	**fba	**kern	**fba	**kern	**kern	**kern
*part5	*	*part4	*	*part3	*part2	*part1
*staff5	*	*staff4	*	*staff3	*staff2	*staff1
*I"BASSVS CONTINUUS.	*	*I"BASSUS	*	*I"VIOLINO II.	*I"VIOLINO I.	*I"FAGOTTO
*I'bc	*	*I'b	*	*I'vl 2	*I'vl 1	*I'fag
*	*	*	*	*Ivioln	*Ivioln	*Ifagot
*ICklav	*	*ICstr	*	*ICstr	*ICstr	*ICww
*IGcont	*	*IGcont	*	*	*	*
*clefF4	*	*clefF4	*	*clefG2	*clefG2	*clefF4
*k[b-]	*	*k[b-]	*	*k[b-]	*k[b-]	*k[b-]
*d:	*	*d:	*	*d:	*d:	*d:
*M2/2	*	*M2/2	*	*M2/2	*M2/2	*M2/2
*met(C|)	*	*met(C|)	*	*met(C|)	*met(C|)	*met(C|)
=1-	=1-	=1-	=1-	=1-	=1-	=1-
!LO:TX:b:t=Adagio.	!	!LO:TX:b:t=Adagio.	!	!LO:TX:b:t=Adagio.	!LO:TX:b:t=Adagio.	!LO:TX:b:t=Adagio.
2.D/	.	2.D/	.	1r	00r	4r
.	.	.	.	.	.	2D/
8AA/	.	8AA/	.	.	.	8AA/
!	!	!	!	!	!	!LO:TX:t=P:problem=kreska pseudotaktowa
8C/	.	8C/	.	.	.	8C/
=2-	=2-	=2-	=2-	=2-	=2-	=2-
4.D/	.	4.D/	.	4r	.	4.D/
.	.	.	.	2dd\	.	.
8E\	.	8E\	.	.	.	8E\
4F\	6	4F\	6	.	.	4F\
!LO:TX:t=P:problem=kreska pseudotaktowa	!	!LO:TX:t=P:problem=kreska pseudotaktowa	!	!	!	!
[4C/	6	[4C/	6	8a/	.	2C/
!	!	!	!	!LO:TX:t=P:problem=kreska pseudotaktowa	!	!
.	.	.	.	8cc\	.	.
=3-	=3-	=3-	=3-	=3-	=3-	=3-
4C/]	2	4C/]	2	4.dd\	.	.
4BB-/	.	4BB-/	.	.	.	4BB-/
.	.	.	.	8ee\	.	.
!	!	!	!	!	!	!LO:TX:t=P:problem=kreska pseudotaktowa
2AA/	6	2AA/	6	4ff\	.	2AA/
.	.	.	.	2cc\	.	.
=4-	=4-	=4-	=4-	=4-	=4-	=4-
4D/	7	4D/	7	.	.	4D/
[<4G\	.	[<4G\	.	4b-/	.	2G\
4G\]	2	4G\]	2	4a/	.	.
!LO:TX:t=P:problem=kreska pseudotaktowa	!	!LO:TX:t=P:problem=kreska pseudotaktowa	!	!	!	!
4F\	6	4F\	6	2dd\	.	4F\
=5-	=5-	=5-	=5-	=5-	=5-	=5-
2E\	7 #	2E\	7 #	.	2r	2E\
.	6 x	.	6 x	4cc#X\	.	.
2D/	.	2D/	.	4.dd\	4r	2D/
.	.	.	.	.	2aa\	.
!	!	!	!	!LO:TX:t=P:problem=kreska pseudotaktowa	!	!
.	.	.	.	8d/	.	.
=6-	=6-	=6-	=6-	=6-	=6-	=6-
4C#X/	.	4C#X/	.	4e/	.	4C#X/
4D/	.	4D/	.	4f/	8dd\	2D/
.	.	.	.	.	8ff\	.
4D/	4 2	4D/	4 2	2e/	4.gg\	.
4C#X/	.	4C#X/	.	.	.	4C#X/
!	!	!	!	!	!LO:TX:t=P:problem=kreska pseudotaktowa	!
.	.	.	.	.	8aa\	.
=7-	=7-	=7-	=7-	=7-	=7-	=7-
2D/	.	2D/	.	4d/	4bb-\	2D/
.	.	.	.	2dd\	2ff\	.
!	!	!	!	!	!	!LO:TX:t=P:problem=kreska pseudotaktowa
2AA/	6 4	2AA/	6 4	.	.	2AA/
.	5 3	.	5 3	4ccny\	4ee\	.
=8-	=8-	=8-	=8-	=8-	=8-	=8-
4.BB-/	5	4.BB-/	5	4.b-/	4dd\	4.BB-/
.	6	.	6	.	2gg\	.
8GG/	.	8GG/	.	8dd\	.	8GG/
4AA/	7	4AA/	7	4cc#X\	.	4AA/
4DD/	.	4DD/	.	2dd\	4ff\	4DD/
=9-	=9-	=9-	=9-	=9-	=9-	=9-
2AA/	4	2AA/	4	.	2ee\	2AA/
.	#	.	#	4cc#X\	.	.
!LO:TX:t=P:problem=kreska pseudotaktowa	!	!LO:TX:t=P:problem=kreska pseudotaktowa	!	!LO:TX:t=P:problem=kreska pseudotaktowa	!LO:TX:t=P:problem=kreska pseudotaktowa	!LO:TX:t=P:problem=kreska pseudotaktowa
2D/	.	2D/	.	2dd\	2dd\	2DD/
=10-	=10-	=10-	=10-	=10-	=10-	=10-
[<1D	-	[<1D	-	4r	8r	2r
.	.	.	.	.	8dd\	.
.	.	.	.	8r	8ff\	.
.	.	.	.	8dd\	8ff\	.
.	.	.	.	8ff\	8aa\	8r
.	.	.	.	8ff\	16aa\	8D/
.	.	.	.	.	16gg\	.
.	.	.	.	8aa\	8ff\	8F\
!	!	!	!	!	!LO:TX:t=P:problem=kreska pseudotaktowa	!
.	.	.	.	16aa\	8dd\	8F\
.	.	.	.	16gg\	.	.
*	*	*	*	*custos:ff	*	*
!	!	!	!	!LO:LB:g=original	!	!
=11-	=11-	=11-	=11-	=11-	=11-	=11-
1D_<	.	1D_<	.	8ff\	2r	8A\
.	.	.	.	8dd\	.	16A\
.	.	.	.	.	.	16G\
.	.	.	.	4r	.	8F\
.	.	.	.	.	.	8D/
.	.	.	.	16r	16r	2r
.	.	.	.	16ff\	16aa\	.
.	.	.	.	16ee\	16gg\	.
.	.	.	.	16dd\	16ff\	.
.	.	.	.	16ccny\	16ee\	.
.	.	.	.	16b-/	16dd\	.
.	.	.	.	16a/	16cc\	.
!	!	!	!	!LO:TX:t=P:problem=kreska pseudotaktowa	!LO:TX:t=P:problem=kreska pseudotaktowa	!
.	.	.	.	16g/	16b-/	.
*	*	*	*	*	*	*custos:D
!	!	!	!	!	!	!LO:LB:g=original
=12-	=12-	=12-	=12-	=12-	=12-	=12-
1D]	.	1D]	.	16f/	16a/	16r
.	.	.	.	16d/	16f/	16D/
.	.	.	.	16e/	16g/	16Cny/
.	.	.	.	16f/	16a/	16BB-/
.	.	.	.	16g/	16b-/	16AA/
.	.	.	.	16a/	16cc\	16GG/
.	.	.	.	16b-/	16dd\	16FF/
.	.	.	.	16cc/	16ee\	16EE/
*	*	*	*	*	*custos:ff	*
!	!	!	!	!	!LO:LB:g=original	!
.	.	.	.	4dd\	4.ff\	16DD/
.	.	.	.	.	.	16AA/
.	.	.	.	.	.	16BB-/
.	.	.	.	.	.	16C/
!	!	!	!	!LO:TX:t=P:problem=kreska pseudotaktowa, między nutą a kropką	!	!
.	.	.	.	4.dd\	.	16D/
.	.	.	.	.	.	16E\
!	!	!	!	!	!LO:TX:t=P:problem=kreska pseudotaktowa	!
.	.	.	.	.	8ff\	16F\
!	!	!	!	!	!	!LO:TX:t=P:problem=kreska pseudotaktowa
.	.	.	.	.	.	16G\
=13-	=13-	=13-	=13-	=13-	=13-	=13-
2A\	5 4	2A\	5 4	.	4.ee\	8A\
.	.	.	.	8dd\	.	16A\
.	.	.	.	.	.	16G\
.	x 3	.	x 3	4.cc\	.	16A\
.	.	.	.	.	.	16AA/
.	.	.	.	.	8ee\	16GG/
.	.	.	.	.	.	16AA/
!LO:TX:t=P:problem=kreska pseudotaktowa	!	!LO:TX:t=P:problem=kreska pseudotaktowa	!	!	!	!
2B-\	9	2B-\	9	.	4.dd\	8BB-/
.	.	.	.	8cc\	.	16B-\
.	.	.	.	.	.	16A\
!	!	!	!	!LO:TX:t=P:problem=kreska pseudotaktowa, między nutą a kropką	!	!
.	8	.	8	4.b-/	.	16B-\
.	.	.	.	.	.	16BB-/
.	.	.	.	.	8dd\	16D/
!	!	!	!	!	!	!LO:TX:t=P:problem=kreska pseudotaktowa
.	.	.	.	.	.	16E\
=14-	=14-	=14-	=14-	=14-	=14-	=14-
2F\	4	2F\	4	.	4.cc\	8F\
.	.	.	.	8b-/	.	16F\
.	.	.	.	.	.	16E\
.	3	.	3	4.a/	.	16F\
.	.	.	.	.	.	16FF/
.	.	.	.	.	8cc\	16EE/
.	.	.	.	.	.	16FF/
*	*	*	*	*	*	*custos:GG
!	!	!	!	!	!	!LO:LB:g=original
2G\	9	2G\	9	.	4.b-/	8GG/
.	.	.	.	8a/	.	16G\
.	.	.	.	.	.	16F\
!	!	!	!	!LO:TX:t=P:problem=kreska pseudotaktowa	!	!
.	8	.	8	4g/	.	16G\
.	.	.	.	.	.	16GG/
!	!	!	!	!	!LO:TX:t=P:problem=kreska pseudotaktowa	!
.	.	.	.	.	8b-/	16BB-/
!	!	!	!	!	!	!LO:TX:t=P:problem=kreska pseudotaktowa
.	.	.	.	.	.	16C/
*custos:D	*	*custos:D	*	*	*	*
!LO:LB:g=original	!	!LO:LB:g=original	!	!	!	!
=15-	=15-	=15-	=15-	=15-	=15-	=15-
2D/	.	2D/	.	8f/	8a/	4.D/
.	.	.	.	16dd\	16ff\	.
.	.	.	.	16cc\	16ee\	.
.	.	.	.	16dd\	16ff\	.
.	.	.	.	16d/	16f/	.
.	.	.	.	16c/	16e/	8D/
.	.	.	.	16d/	16f/	.
2Cny/	.	2Cny/	.	8e/	8g/	4.C/
.	.	.	.	16ee\	16gg\	.
.	.	.	.	16dd\	16ff\	.
*	*	*	*	*custos:ee	*	*
!	!	!	!	!LO:LB:g=original	!	!
.	.	.	.	16ee\	16gg\	.
.	.	.	.	16e/	16g/	.
.	.	.	.	16d/	16f/	8C/
!	!	!	!	!LO:TX:t=P:problem=kreska pseudotaktowa	!LO:TX:t=P:problem=kreska pseudotaktowa	!
.	.	.	.	16e/	16g/	.
=16-	=16-	=16-	=16-	=16-	=16-	=16-
[>1FF	.	[>1FF	.	4f/	8a/	2FF/
.	.	.	.	.	8ff\	.
.	.	.	.	8r	8aa\	.
.	.	.	.	8ff\	8aa\	.
.	.	.	.	8aa\	8ccc\	8r
.	.	.	.	8aa\	16ccc\	8F\
.	.	.	.	.	16bb-\	.
.	.	.	.	8ccc\	8aa\	8A\
!	!	!	!	!	!	!LO:TX:t=P:problem=kreska pseudotaktowa
.	.	.	.	16ccc\	8ff\	8A\
!	!	!	!	!LO:TX:t=P:problem=kreska pseudotaktowa	!	!
.	.	.	.	16bb-\	.	.
*	*	*	*	*	*custos:ccc	*
!	!	!	!	!	!LO:LB:g=original	!
=17-	=17-	=17-	=17-	=17-	=17-	=17-
1FF_>	.	1FF_>	.	8aa\	2r	8c\
.	.	.	.	8ff\	.	16c\
.	.	.	.	.	.	16B-\
.	.	.	.	4r	.	8A\
.	.	.	.	.	.	8F\
!	!	!	!	!	!	!LO:TX:t=P:problem=kreska pseudotaktowa
.	.	.	.	16r	16r	2r
.	.	.	.	16aa\	16ccc\	.
.	.	.	.	16gg\	16bb-\	.
.	.	.	.	16ff\	16aa\	.
.	.	.	.	16ee\	16gg\	.
.	.	.	.	16dd\	16ff\	.
.	.	.	.	16cc\	16ee\	.
!	!	!	!	!LO:TX:t=P:problem=kreska pseudotaktowa	!LO:TX:t=P:problem=kreska pseudotaktowa	!
.	.	.	.	16b-/	16dd\	.
=18-	=18-	=18-	=18-	=18-	=18-	=18-
2.FF/]	.	2.FF/]	.	16a/	16cc\	16r
.	.	.	.	16f/	16a/	16F\
.	.	.	.	16g/	16b-/	16E\
.	.	.	.	16a/	16cc\	16D/
.	.	.	.	16b-/	16dd\	16C/
.	.	.	.	16cc\	16ee\	16BB-/
.	.	.	.	16dd\	16ff\	16AA/
.	.	.	.	16ee\	16gg\	16GG/
.	.	.	.	4ff\	4.aa\	16FF/
.	.	.	.	.	.	16C/
.	.	.	.	.	.	16D/
.	.	.	.	.	.	16E\
!	!	!	!	!LO:TX:t=P:problem=kreska pseudotaktowa, między nutą a kropką	!	!
4F\	.	4F\	.	4.ff\	.	16F\
.	.	.	.	.	.	16G\
!	!	!	!	!	!LO:TX:t=P:problem=kreska pseudotaktowa	!
.	.	.	.	.	8aa\	16A\
.	.	.	.	.	.	16B-\
*	*	*	*	*	*	*custos:c
!	!	!	!	!	!	!LO:LB:g=original
=19-	=19-	=19-	=19-	=19-	=19-	=19-
2C/	5 4	2C/	5 4	.	4.gg\	8c\
.	.	.	.	8ff\	.	16c\
.	.	.	.	.	.	16B-\
.	x 3	.	x 3	4.ee\	.	16c\
.	.	.	.	.	.	16E\
.	.	.	.	.	8gg\	16F\
.	.	.	.	.	.	16E\
2D/	9	2D/	9	.	4.ff\	8D/
.	.	.	.	8ee\	.	16d\
.	.	.	.	.	.	16c\
!	!	!	!	!LO:TX:t=P:problem=kreska pseudotaktowa	!	!
.	8	.	8	[4dd\	.	16d\
.	.	.	.	.	.	16D/
.	.	.	.	.	8ff\	16F\
!	!	!	!	!	!	!LO:TX:t=P:problem=kreska pseudotaktowa
.	.	.	.	.	.	16G\
*	*	*	*	*custos:dd	*	*
!	!	!	!	!LO:LB:g=original	!	!
=20-	=20-	=20-	=20-	=20-	=20-	=20-
!	!	!	!	!LO:N:xstem:cue	!	!
2AA/	5 4	2AA/	5 4	8dd\]	4.ee\	8A\
.	.	.	.	8dd\	.	16A\
.	.	.	.	.	.	16G\
.	x 3	.	x 3	4.cc\	.	16A\
.	.	.	.	.	.	16C/
.	.	.	.	.	8ee\	16D/
.	.	.	.	.	.	16C/
!	!	!	!	!	!LO:TX:t=P:problem=kreska pseudotaktowa	!
2BB-/	9	2BB-/	9	.	2dd\	8BB-/
.	.	.	.	8cc\	.	16B-\
.	.	.	.	.	.	16A\
!	!	!	!	!LO:TX:t=P:problem=kreska pseudotaktowa	!	!
.	8	.	8	4b-/	.	16B-\
.	.	.	.	.	.	16BB-/
.	.	.	.	.	.	16D/
.	.	.	.	.	.	16E\
=21-	=21-	=21-	=21-	=21-	=21-	=21-
2F\	.	2F\	.	8a/	8cc\	4F\
.	.	.	.	8aa\	16ccc\	.
.	.	.	.	.	16bb-\	.
.	.	.	.	4.ff\	16ccc\	4A\
.	.	.	.	.	16cc\	.
.	.	.	.	.	16dd\	.
.	.	.	.	.	16cc\	.
2G\	7	2G\	7	.	8b-/	4.G\
.	.	.	.	8ff\	16bb-\	.
.	.	.	.	.	16aa\	.
!	!	!	!	!LO:TX:t=P:problem=kreska pseudotaktowa	!	!
.	6	.	6	4ee\	16bb-\	.
.	.	.	.	.	16b-/	.
.	.	.	.	.	16cc\	8G\
.	.	.	.	.	16b-/	.
*	*	*	*	*	*custos:a	*
!	!	!	!	!	!LO:LB:g=original	!
=22-	=22-	=22-	=22-	=22-	=22-	=22-
2F\	.	2F\	.	2ff\	8a/	4.F\
.	.	.	.	.	16aa\	.
.	.	.	.	.	16gg\	.
.	.	.	.	.	16aa\	.
.	.	.	.	.	16a/	.
.	.	.	.	.	16b-/	8F\
.	.	.	.	.	16a/	.
*	*	*	*	*	*	*custos:E
!	!	!	!	!	!	!LO:LB:g=original
2E\	.	2E\	.	8r	4g/	4.E\
.	.	.	.	16gg\	.	.
.	.	.	.	16ff\	.	.
!	!	!	!	!	!LO:TX:t=P:problem=kreska pseudotaktowa	!
.	.	.	.	16gg\	4r	.
.	.	.	.	16g/	.	.
.	.	.	.	16a/	.	8E\
!	!	!	!	!LO:TX:t=P:problem=kreska pseudotaktowa	!	!
.	.	.	.	16g/	.	.
=23-	=23-	=23-	=23-	=23-	=23-	=23-
2D/	.	2D/	.	8f/	4r	2D/
.	.	.	.	16ff\	.	.
.	.	.	.	16ee\	.	.
.	.	.	.	16ff\	4.aa\	.
.	.	.	.	16f/	.	.
.	.	.	.	16g/	.	.
.	.	.	.	16f/	.	.
!	!	!	!	!	!	!LO:TX:t=P:problem=kreska pseudotaktowa
2C/	6	2C/	6	8e/	.	2r
.	.	.	.	16ee\	8aa\	.
.	.	.	.	16dd\	.	.
!	!	!	!	!	!LO:TX:t=P:problem=kreska pseudotaktowa, między nutą a kropką	!
.	5	.	5	16ee\	4.gg\	.
.	.	.	.	16e/	.	.
.	.	.	.	16f/	.	.
!	!	!	!	!LO:TX:t=P:problem=kreska pseudotaktowa	!	!
.	.	.	.	16e/	.	.
=24-	=24-	=24-	=24-	=24-	=24-	=24-
2BB-/	6	2BB-/	6	8d/	.	8r
.	.	.	.	16dd\	8gg\	16B-\
.	.	.	.	16cc\	.	16A\
*	*	*	*	*custos:dd	*	*
!	!	!	!	!LO:LB:g=original	!	!
.	5	.	5	16dd\	4ff\	16B-\
.	.	.	.	16d/	.	16BB-/
.	.	.	.	16e/	.	16C/
.	.	.	.	16d/	.	16BB-/
!LO:TX:t=P:problem=kreska pseudotaktowa	!	!LO:TX:t=P:problem=kreska pseudotaktowa	!	!	!	!
2AA/	6	2AA/	6	4c/	4r	8AA/
.	.	.	.	.	.	16A\
.	.	.	.	.	.	16G\
!	!	!	!	!LO:TX:t=P:problem=kreska pseudotaktowa	!LO:TX:t=P:problem=kreska pseudotaktowa, między nutą a kropką	!
.	.	.	.	4r	4.ff\	16A\
.	.	.	.	.	.	16AA/
.	.	.	.	.	.	16BB-/
!	!	!	!	!	!	!LO:TX:t=P:problem=kreska pseudotaktowa
.	.	.	.	.	.	16AA/
=25-	=25-	=25-	=25-	=25-	=25-	=25-
2GG/	7	2GG/	7	8r	.	8GG/
.	.	.	.	16bb-\	8ff\	16G\
.	.	.	.	16aa\	.	16F\
.	6	.	6	16bb-\	4.ee\	16G\
.	.	.	.	16b-/	.	16GG/
.	.	.	.	16cc\	.	16AA/
.	.	.	.	16b-/	.	16GG/
4FF/	7	4FF/	7	8a/	.	4FF/
.	.	.	.	16aa\	8ee\	.
.	.	.	.	16gg\	.	.
!	!	!	!	!	!LO:TX:t=P:problem=kreska pseudotaktowa, między nutą a kropką	!LO:TX:t=P:problem=kreska pseudotaktowa
4F\	6	4F\	6	16aa\	4.dd\	4F\
.	.	.	.	16a/	.	.
.	.	.	.	16b-/	.	.
!	!	!	!	!LO:TX:t=P:problem=kreska pseudotaktowa	!	!
.	.	.	.	16a/	.	.
=26-	=26-	=26-	=26-	=26-	=26-	=26-
2E\	7 #	2E\	7 #	8g/	.	4.E\
.	.	.	.	16gg\	8dd\	.
.	.	.	.	16ff\	.	.
.	6 x	.	6 x	16gg\	4cc#X\	.
.	.	.	.	16g/	.	.
.	.	.	.	16a/	.	8E\
.	.	.	.	16g/	.	.
!LO:TX:t=P:problem=kreska pseudotaktowa	!	!LO:TX:t=P:problem=kreska pseudotaktowa	!	!	!	!
2D/	5	2D/	5	8f/	8dd\	4.D/
.	.	.	.	8aa\	16ff\	.
.	.	.	.	.	16ee\	.
!	!	!	!	!LO:TX:t=P:problem=kreska pseudotaktowa, między nutą a kropką	!	!
.	6	.	6	4.bb-\	16ff\	.
.	.	.	.	.	16f/	.
.	.	.	.	.	16g/	8D/
.	.	.	.	.	16f/	.
=27-	=27-	=27-	=27-	=27-	=27-	=27-
2C/	.	2C/	.	.	8e/	4.C/
.	.	.	.	8bb-\	16ee\	.
.	.	.	.	.	16dd\	.
.	.	.	.	4.aa\	16ee\	.
.	.	.	.	.	16e/	.
.	.	.	.	.	16f/	8C/
.	.	.	.	.	16e/	.
*	*	*	*	*	*custos:d	*
!	!	!	!	!	!LO:LB:g=original	!
2BB-/	.	2BB-/	.	.	8d/	8BB-/
.	.	.	.	8aa\	8dd\	16B-\
.	.	.	.	.	.	16A\
!	!	!	!	!	!LO:TX:t=P:problem=kreska pseudotaktowa	!
.	.	.	.	4gg\	4dd\	16B-\
.	.	.	.	.	.	16BB-/
.	.	.	.	.	.	16D/
.	.	.	.	.	.	16E\
*	*	*	*	*custos:ff	*	*custos:F
!	!	!	!	!LO:LB:g=original	!	!LO:LB:g=original
=28-	=28-	=28-	=28-	=28-	=28-	=28-
2F\	.	2F\	.	8aa\	8ccny\	4.F\
.	.	.	.	16aa\	16ccc\	.
.	.	.	.	16gg\	16bb-\	.
.	.	.	.	16aa\	16ccc\	.
.	.	.	.	16a/	16cc\	.
.	.	.	.	16b-/	16dd\	8F\
.	.	.	.	16a/	16cc\	.
2G\	.	2G\	.	8g/	8b-/	4G\
.	.	.	.	16gg\	16gg\	.
.	.	.	.	16ff\	16ff\	.
.	.	.	.	16gg\	16gg\	4GG/
.	.	.	.	16g/	16b-/	.
.	.	.	.	16a/	16cc\	.
!	!	!	!	!LO:TX:t=P:problem=kreska pseudotaktowa	!LO:TX:t=P:problem=kreska pseudotaktowa	!
.	.	.	.	16g/	16b-/	.
=29-	=29-	=29-	=29-	=29-	=29-	=29-
1D	.	1D	.	16f/	16a/	2D/
.	.	.	.	16dd\	16ff\	.
.	.	.	.	16cc\	16ee\	.
.	.	.	.	16b-/	16dd\	.
.	.	.	.	16a/	16cc\	.
.	.	.	.	16g/	16b-/	.
.	.	.	.	16f/	16a/	.
.	.	.	.	16e/	16g/	.
!	!	!	!	!LO:TX:t=P:problem=kreska pseudotaktowa	!LO:TX:t=P:problem=kreska pseudotaktowa	!
.	.	.	.	2d/	2f/	16r
.	.	.	.	.	.	16D/
.	.	.	.	.	.	16E\
.	.	.	.	.	.	16F\
.	.	.	.	.	.	16G\
.	.	.	.	.	.	16A\
.	.	.	.	.	.	16B-\
.	.	.	.	.	.	16c\
=30-	=30-	=30-	=30-	=30-	=30-	=30-
[>1BB-	.	[>1BB-	.	16r	16r	16d\
.	.	.	.	16d/	16f/	16B-\
.	.	.	.	16e/	16g/	16A\
.	.	.	.	16f/	16a/	16G\
.	.	.	.	16g/	16b-/	16F\
.	.	.	.	16a/	16cc\	16E\
.	.	.	.	16b-/	16dd\	16D/
.	.	.	.	16cc/	16ee\	16C/
.	.	.	.	4dd\	4ff\	4BB-/
!	!	!	!	!	!	!LO:TX:t=P:problem=kreska pseudotaktowa, między nutą a kropką
.	.	.	.	8r	8r	4.BB-/
.	.	.	.	16b-/	16dd\	.
.	.	.	.	16a/	16cc\	.
*	*	*	*	*	*custos:dd	*
!	!	!	!	!	!LO:LB:g=original	!
=31-	=31-	=31-	=31-	=31-	=31-	=31-
4BB-/]	.	4BB-/]	.	16b-/	16dd\	.
.	.	.	.	16B-/	16d/	.
.	.	.	.	16c/	16e/	8BB-/
.	.	.	.	16B-/	16d/	.
*	*	*	*	*custos:A	*	*
!	!	!	!	!LO:LB:g=original	!	!
4F\	.	4F\	.	16A/	16c/	4F\
.	.	.	.	16a/	16cc\	.
.	.	.	.	16b-/	16dd\	.
.	.	.	.	16a/	16cc\	.
2G\	.	2G\	.	8g/	8b-/	4G\
.	.	.	.	16gg\	16bb-\	.
.	.	.	.	16ff\	16aa\	.
.	.	.	.	16gg\	16bb-\	4GG/
.	.	.	.	16g/	16b-/	.
.	.	.	.	16a/	16cc\	.
!	!	!	!	!LO:TX:t=P:problem=kreska pseudotaktowa	!LO:TX:t=P:problem=kreska pseudotaktowa	!
.	.	.	.	16g/	16b-/	.
=32-	=32-	=32-	=32-	=32-	=32-	=32-
0D	#	0D	#	8f#X/	8a/	0D
.	.	.	.	16b-/	16dd\	.
.	.	.	.	16a/	16cc\	.
.	.	.	.	16b-/	16dd\	.
.	.	.	.	16g/	16b-/	.
.	.	.	.	16a/	16cc\	.
.	.	.	.	16g/	16b-/	.
.	.	.	.	8f#X/	8a/	.
.	.	.	.	16dd\	16b-/	.
.	.	.	.	16cc\	16a/	.
.	.	.	.	16dd\	16b-/	.
.	.	.	.	16b-/	16g/	.
.	.	.	.	16cc\	16a/	.
!	!	!	!	!	!LO:TX:t=P:problem=kreska pseudotaktowa	!
.	.	.	.	16b-/	16g/	.
=33-	=33-	=33-	=33-	=33-	=33-	=33-
.	.	.	.	8a/	8f#X/	.
.	.	.	.	16b-/	16dd\	.
.	.	.	.	16a/	16cc\	.
.	.	.	.	16b-/	16dd\	.
.	.	.	.	16g/	16b-/	.
.	.	.	.	16a/	16cc\	.
.	.	.	.	16g/	16b-/	.
.	.	.	.	8f#X/	2a/	.
.	.	.	.	4g/	.	.
.	.	.	.	8f#X/	.	.
=34-	=34-	=34-	=34-	=34-	=34-	=34-
1GG;	.	1GG;	.	1g	1g	1GG
*	*	*	*	*custos:dd	*	*custos:D
!	!	!	!	!LO:PB:g=original	!	!LO:LB:g=original
=35-	=35-	=35-	=35-	=35-	=35-	=35-
*M3/2	*	*M3/2	*	*M3/2	*M3/2	*M3/2
1D	.	1D	.	1.r	0.r	4D/
.	.	.	.	.	.	8D/
.	.	.	.	.	.	8D/
.	.	.	.	.	.	4F\
.	.	.	.	.	.	4F\
2AA/	.	2AA/	.	.	.	4E\
.	.	.	.	.	.	4E\
=36-	=36-	=36-	=36-	=36-	=36-	=36-
1D	.	1D	.	4dd\	.	2.D/
.	.	.	.	8dd\	.	.
.	.	.	.	8dd\	.	.
.	.	.	.	4ff\	.	.
.	.	.	.	4ff\	.	4D/
2C/	.	2C/	.	4ee\	.	2C/
!	!	!	!	!LO:TX:t=P:problem=kreska pseudotaktowa	!	!
.	.	.	.	4ee\	.	.
*custos:BB	*	*custos:BB	*	*	*	*
!LO:LB:g=original	!	!LO:LB:g=original	!	!	!	!
=37-	=37-	=37-	=37-	=37-	=37-	=37-
1BB-	.	1BB-	.	2.dd\	1.r	2.BB-/
.	.	.	.	4dd\	.	4BB-/
!LO:TX:t=P:problem=kreska pseudotaktowa	!	!LO:TX:t=P:problem=kreska pseudotaktowa	!	!	!	!
2AA/	.	2AA/	.	2cc\	.	2AA/
*	*	*	*	*	*custos:gg	*
!	!	!	!	!	!LO:LB:g=original	!
=38-	=38-	=38-	=38-	=38-	=38-	=38-
1GG	.	1GG	.	4.b-/	4gg\	2.GG/
.	.	.	.	.	8gg\	.
.	.	.	.	8cc\	8gg\	.
.	.	.	.	4dd\	4bb-\	.
.	.	.	.	4ee\	4bb-\	4GG/
2FF/	.	2FF/	.	4ff\	4aa\	2FF/
!	!	!	!	!LO:TX:t=P:problem=kreska pseudotaktowa	!LO:TX:t=P:problem=kreska pseudotaktowa	!
.	.	.	.	4ff\	4aa\	.
=39-	=39-	=39-	=39-	=39-	=39-	=39-
1C	.	1C	.	2.ee\	2.gg\	2.C/
.	.	.	.	4ee\	4gg\	4C/
2D/	.	2D/	.	2dd\	2ff\	2D/
=40-	=40-	=40-	=40-	=40-	=40-	=40-
2GG/	.	2GG/	.	1dd	2ee\	2GG/
*col	*	*col	*	*	*	*
1AA	.	1AA	.	.	2.ee\	2.AA/
.	.	.	.	2cc#X\	.	.
!	!	!	!	!	!LO:TX:t=P:problem=kreska pseudotaktowa	!
.	.	.	.	.	4ff\	4AA/
*Xcol	*	*Xcol	*	*	*	*
=41-	=41-	=41-	=41-	=41-	=41-	=41-
1.BB-	6	1.BB-	6	1.dd	4dd\	1.BB-
.	.	.	.	.	8ee\	.
.	.	.	.	.	8ff\	.
.	.	.	.	.	2.gg\	.
.	.	.	.	.	4dd\	.
=42-	=42-	=42-	=42-	=42-	=42-	=42-
!LO:TX:t=P:problem=kreska pseudotaktowa	!	!LO:TX:t=P:problem=kreska pseudotaktowa	!	!LO:TX:t=P:problem=kreska pseudotaktowa	!LO:TX:t=P:problem=kreska pseudotaktowa	!
1.AA	#	1.AA	#	1.ee	1.cc#X	1.AA
=43-	=43-	=43-	=43-	=43-	=43-	=43-
1.D	.	1.D	.	4dd\	1.r	0.r
.	.	.	.	8ccny\	.	.
.	.	.	.	8b-/	.	.
.	.	.	.	4a/	.	.
.	.	.	.	4fny/	.	.
.	.	.	.	4.a/	.	.
.	.	.	.	8b-/	.	.
*	*	*	*	*custos:cc	*	*
!	!	!	!	!LO:LB:g=original	!	!
=44-	=44-	=44-	=44-	=44-	=44-	=44-
2AA/	.	2AA/	.	4cc\	4aa\	.
.	.	.	.	8b-/	8gg\	.
.	.	.	.	8a/	8ff\	.
*col	*	*col	*	*	*	*
1C	.	1C	.	4g/	4ee\	.
.	.	.	.	4e/	4ccny\	.
.	.	.	.	4.g/	4.ee\	.
.	.	.	.	8a/	8ff\	.
*Xcol	*	*Xcol	*	*	*	*
=45-	=45-	=45-	=45-	=45-	=45-	=45-
1GG	.	1GG	.	2b-/	4gg\	1.r
.	.	.	.	.	8ff\	.
.	.	.	.	.	8ee\	.
.	.	.	.	2r	4dd\	.
.	.	.	.	.	4b-/	.
!	!	!	!	!LO:TX:t=P:problem=kreska pseudotaktowa	!	!
2BB-/	.	2BB-/	.	2r	4.dd\	.
.	.	.	.	.	8ee\	.
*	*	*	*	*	*custos:ff	*custos:D
!	!	!	!	!	!LO:LB:g=original	!LO:PB:g=original
=46-	=46-	=46-	=46-	=46-	=46-	=46-
2D/	.	2D/	.	1.r	4ff\	4D/
.	.	.	.	.	8ee\	8C/
.	.	.	.	.	8dd\	8BB-/
4AA/	.	4AA/	.	.	4cc\	4AA/
4FF/	.	4FF/	.	.	4a/	4FF/
2AA/	.	2AA/	.	.	4.cc\	4.AA/
!	!	!	!	!	!LO:TX:t=P:problem=kreska pseudotaktowa	!LO:TX:t=P:problem=kreska pseudotaktowa
.	.	.	.	.	8dd\	8BB-/
=47-	=47-	=47-	=47-	=47-	=47-	=47-
2C/	.	2C/	.	2r	2ee\	8C/
.	.	.	.	.	.	8C/
.	.	.	.	.	.	8C/
.	.	.	.	.	.	8C/
2E\	.	2E\	.	2r	8g/	8E\
.	.	.	.	.	8g/	8E\
.	.	.	.	.	8g/	8E\
.	.	.	.	.	8g/	8E\
!	!	!	!	!	!	!LO:TX:t=P:problem=kreska pseudotaktowa
2G\	.	2G\	.	8dd\	8b-/	2G\
.	.	.	.	8dd\	8b-/	.
.	.	.	.	8dd\	8b-/	.
!	!	!	!	!LO:TX:t=P:problem=kreska pseudotaktowa	!LO:TX:t=P:problem=kreska pseudotaktowa	!
.	.	.	.	8dd\	8b-/	.
=48-	=48-	=48-	=48-	=48-	=48-	=48-
2D/	.	2D/	.	8ff\	2dd\	8D/
.	.	.	.	8ff\	.	8D/
.	.	.	.	8ff\	.	8D/
.	.	.	.	8ff\	.	8D/
2F\	.	2F\	.	2aa\	2r	8F\
.	.	.	.	.	.	8F\
.	.	.	.	.	.	8F\
.	.	.	.	.	.	8F\
!LO:TX:t=P:problem=kreska pseudotaktowa	!	!LO:TX:t=P:problem=kreska pseudotaktowa	!	!LO:TX:t=P:problem=kreska pseudotaktowa	!	!LO:TX:t=P:problem=kreska pseudotaktowa
2A\	6	2A\	6	2r	8fny/	2A\
.	.	.	.	.	8f/	.
.	.	.	.	.	8f/	.
!	!	!	!	!	!LO:TX:t=P:problem=kreska pseudotaktowa	!
.	.	.	.	.	8f/	.
=49-	=49-	=49-	=49-	=49-	=49-	=49-
2F\	.	2F\	.	2r	8a/	8F\
.	.	.	.	.	8a/	8F\
.	.	.	.	.	8a/	8F\
.	.	.	.	.	8a/	8F\
2A\	.	2A\	.	2r	2cc\	8A\
.	.	.	.	.	.	8A\
.	.	.	.	.	.	8A\
.	.	.	.	.	.	8A\
!	!	!	!	!	!LO:TX:t=P:problem=kreska pseudotaktowa	!LO:TX:t=P:problem=kreska pseudotaktowa
2c\	.	2c\	.	8g/	2r	2c\
.	.	.	.	8g/	.	.
.	.	.	.	8g/	.	.
!	!	!	!	!LO:TX:t=P:problem=kreska pseudotaktowa	!	!
.	.	.	.	8g/	.	.
=50-	=50-	=50-	=50-	=50-	=50-	=50-
2G\	.	2G\	.	8b-/	4bb-\	4G\
.	.	.	.	8b-/	.	.
.	.	.	.	8b-/	8aa\	8F\
.	.	.	.	8b-/	8gg\	8E\
4D/	.	4D/	.	2dd\	4ff\	4D/
4BB-/	.	4BB-/	.	.	4dd\	4BB-/
*	*	*	*	*	*	*custos:D
!	!	!	!	!	!	!LO:LB:g=original
!	!	!	!	!LO:TX:t=P:problem=kreska pseudotaktowa	!	!
2D/	.	2D/	.	2r	4.ff\	4.D/
!	!	!	!	!	!LO:TX:t=P:problem=kreska pseudotaktowa	!LO:TX:t=P:problem=kreska pseudotaktowa
.	.	.	.	.	8gg\	8E\
=51-	=51-	=51-	=51-	=51-	=51-	=51-
1.F	.	1.F	.	4dd\	2aa\	8F\
.	.	.	.	.	.	8F\
.	.	.	.	8cc\	.	8F\
.	.	.	.	8b-/	.	8F\
.	.	.	.	4a/	2r	8A\
.	.	.	.	.	.	8A\
.	.	.	.	4f/	.	8A\
.	.	.	.	.	.	8A\
!	!	!	!	!	!	!LO:TX:t=P:problem=kreska pseudotaktowa
.	.	.	.	4.a/	8cc\	2c\
.	.	.	.	.	8cc\	.
.	.	.	.	.	8cc\	.
.	.	.	.	8b-/	8cc\	.
*	*	*	*	*custos:cc	*custos:ee	*
!	!	!	!	!LO:LB:g=original	!LO:PB:g=original	!
=52-	=52-	=52-	=52-	=52-	=52-	=52-
2C/	.	2C/	.	2cc\	8ee\	8C/
.	.	.	.	.	8ee\	8C/
.	.	.	.	.	8ee\	8C/
.	.	.	.	.	8ee\	8C/
!	!	!	!	!	!LO:TX:t=P:problem=kreska pseudotaktowa	!
2E\	.	2E\	.	2r	2gg\	8E\
.	.	.	.	.	.	8E\
.	.	.	.	.	.	8E\
.	.	.	.	.	.	8E\
!	!	!	!	!LO:TX:t=P:problem=kreska pseudotaktowa	!	!LO:TX:t=P:problem=kreska pseudotaktowa
2G\	.	2G\	.	2r	8dd\	2G\
.	.	.	.	.	8dd\	.
.	.	.	.	.	8dd\	.
!	!	!	!	!	!LO:TX:t=P:problem=kreska pseudotaktowa	!
.	.	.	.	.	8dd\	.
=53-	=53-	=53-	=53-	=53-	=53-	=53-
2D/	.	2D/	.	4ff\	8ff\	4D/
.	.	.	.	.	8ff\	.
.	.	.	.	8ee\	8ff\	8C/
.	.	.	.	8dd\	8ff\	8BB-/
4AA/	.	4AA/	.	4cc\	2aa\	4AA/
4FF/	.	4FF/	.	4a/	.	4FF/
2AA/	.	2AA/	.	4.cc\	2r	4.AA/
!	!	!	!	!LO:TX:t=P:problem=kreska pseudotaktowa	!	!
.	.	.	.	8dd\	.	8BB-/
*custos:C	*	*custos:C	*	*	*	*
!LO:LB:g=original	!	!LO:LB:g=original	!	!	!	!
=54-	=54-	=54-	=54-	=54-	=54-	=54-
1C	6	1C	6	2ee\	4aa\	2C/
.	.	.	.	.	8gg\	.
.	.	.	.	.	8ff\	.
.	5	.	5	2r	4ee\	2r
.	.	.	.	.	4cc\	.
!LO:TX:t=P:problem=kreska pseudotaktowa	!	!LO:TX:t=P:problem=kreska pseudotaktowa	!	!	!	!LO:TX:t=P:problem=kreska pseudotaktowa
2AA/	.	2AA/	.	2r	4.ee\	2r
!	!	!	!	!	!LO:TX:t=P:problem=kreska pseudotaktowa	!
.	.	.	.	.	8ff\	.
=55-	=55-	=55-	=55-	=55-	=55-	=55-
2GG/	.	2GG/	.	8b-/	2gg\	4G\
.	.	.	.	8b-/	.	.
.	.	.	.	8b-/	.	8F\
.	.	.	.	8b-/	.	8E\
4D/	.	4D/	.	8dd\	2r	4D/
.	.	.	.	8dd\	.	.
4BB-/	.	4BB-/	.	8dd\	.	4BB-/
.	.	.	.	8dd\	.	.
!	!	!	!	!LO:TX:t=P:problem=kreska pseudotaktowa	!LO:TX:t=P:problem=kreska pseudotaktowa	!
2D/	.	2D/	.	2ff\	2r	4.D/
.	.	.	.	.	.	8E\
*	*	*	*	*	*	*custos:F
!	!	!	!	!	!	!LO:LB:g=original
=56-	=56-	=56-	=56-	=56-	=56-	=56-
2F\	.	2F\	.	4a/	4ff\	4F\
.	.	.	.	8a/	8ee\	8F\
.	.	.	.	8a/	8dd\	8F\
2A\	.	2A\	.	4cc\	4cc\	4A\
.	.	.	.	4cc\	4a/	4A\
!LO:TX:t=P:problem=kreska pseudotaktowa	!	!LO:TX:t=P:problem=kreska pseudotaktowa	!	!	!	!LO:TX:t=P:problem=kreska pseudotaktowa
2G\	.	2G\	.	4b-/	4.dd\	2G\
!	!	!	!	!LO:TX:t=P:problem=kreska pseudotaktowa	!	!
.	.	.	.	4b-/	.	.
!	!	!	!	!	!LO:TX:t=P:problem=kreska pseudotaktowa	!
.	.	.	.	.	8ee\	.
=57-	=57-	=57-	=57-	=57-	=57-	=57-
1F	.	1F	.	8a/	4ff\	2.F\
.	.	.	.	8a/	.	.
.	.	.	.	8a/	8ff\	.
.	.	.	.	8a/	8ff\	.
.	.	.	.	8cc\	4aa\	.
.	.	.	.	8cc\	.	.
.	.	.	.	8cc\	4aa\	4F\
.	.	.	.	8cc\	.	.
2E\	.	2E\	.	2ee\	4gg\	2E\
.	.	.	.	.	4gg\	.
*	*	*	*	*custos:f	*custos:ff	*
!	!	!	!	!LO:LB:g=original	!LO:LB:g=original	!
=58-	=58-	=58-	=58-	=58-	=58-	=58-
1D	.	1D	.	8f/	2.ff\	2.D/
.	.	.	.	8f/	.	.
.	.	.	.	8f/	.	.
.	.	.	.	8f/	.	.
.	.	.	.	8a/	.	.
.	.	.	.	8a/	.	.
.	.	.	.	8a/	4ff\	4D/
.	.	.	.	8a/	.	.
!LO:TX:t=P:problem=kreska pseudotaktowa	!	!LO:TX:t=P:problem=kreska pseudotaktowa	!	!LO:TX:t=P:problem=kreska pseudotaktowa	!LO:TX:t=P:problem=kreska pseudotaktowa	!
2C/	.	2C/	.	2cc\	2ee\	2C/
=59-	=59-	=59-	=59-	=59-	=59-	=59-
2G\	.	2G\	.	4b-/	8dd\	2G\
.	.	.	.	.	8dd\	.
.	.	.	.	8b-/	8dd\	.
.	.	.	.	8b-/	8dd\	.
4D/	.	4D/	.	4dd\	8ff\	4D/
.	.	.	.	.	8ff\	.
4BB-/	.	4BB-/	.	4dd\	8ff\	4BB-/
.	.	.	.	.	8ff\	.
2AA/	.	2AA/	.	4cc\	2aa\	2AA/
!	!	!	!	!LO:TX:t=P:problem=kreska pseudotaktowa	!	!
.	.	.	.	4cc\	.	.
=60-	=60-	=60-	=60-	=60-	=60-	=60-
2GG/	.	2GG/	.	2.b-/	4bb-\	8GG/
.	.	.	.	.	.	8GG/
.	.	.	.	.	2gg\	8GG/
.	.	.	.	.	.	8GG/
2BB-/	.	2BB-/	.	.	.	8BB-/
.	.	.	.	.	.	8BB-/
.	.	.	.	4b-/	4gg\	8BB-/
.	.	.	.	.	.	8BB-/
!LO:TX:t=P:problem=kreska pseudotaktowa	!	!LO:TX:t=P:problem=kreska pseudotaktowa	!	!	!LO:TX:t=P:problem=kreska pseudotaktowa	!LO:TX:t=P:problem=kreska pseudotaktowa
2D/	.	2D/	.	2a/	2ff\	2D/
=61-	=61-	=61-	=61-	=61-	=61-	=61-
2E-X\	.	2E-X\	.	2g/	4gg\	4E-X\
.	.	.	.	.	8ff\	8D/
!	!	!	!	!	!LO:SIC:v:o=8ee\	!
.	.	.	.	.	8ee-	8C/
4BB-/	.	4BB-/	.	2r	4dd\	4BB-/
4GG/	.	4GG/	.	.	4b-/	4GG/
!	!	!	!	!LO:TX:t=P:problem=kreska pseudotaktowa	!	!
2BB-/	.	2BB-/	.	2r	4.dd\	4.BB-/
!	!	!	!	!	!	!LO:TX:t=P:problem=kreska pseudotaktowa
.	.	.	.	.	8ee\	8C/
=62-	=62-	=62-	=62-	=62-	=62-	=62-
2D/	.	2D/	.	8f/	2ff\	4D/
.	.	.	.	8f/	.	.
.	.	.	.	8f/	.	8C/
.	.	.	.	8f/	.	8BB-/
4AA/	.	4AA/	.	8a/	2r	4AA/
.	.	.	.	8a/	.	.
4FF/	.	4FF/	.	8a/	.	4FF/
.	.	.	.	8a/	.	.
!LO:TX:t=P:problem=kreska pseudotaktowa	!	!LO:TX:t=P:problem=kreska pseudotaktowa	!	!	!	!
2AA/	.	2AA/	.	2cc\	8cc\	4.AA/
.	.	.	.	.	8cc\	.
.	.	.	.	.	8cc\	.
!	!	!	!	!	!LO:TX:t=P:problem=kreska pseudotaktowa	!
.	.	.	.	.	8cc\	8BB-/
*	*	*	*	*	*	*custos:C
!	!	!	!	!	!	!LO:LB:g=original
=63-	=63-	=63-	=63-	=63-	=63-	=63-
2C/	.	2C/	.	1.r	8ee\	8C/
.	.	.	.	.	8ee\	8C/
.	.	.	.	.	8ee\	8C/
.	.	.	.	.	8ee\	8C/
2Eny\	.	2Eny\	.	.	2gg\	8Eny\
.	.	.	.	.	.	8E\
.	.	.	.	.	.	8E\
.	.	.	.	.	.	8E\
2G\	.	2G\	.	.	8g/	2G\
.	.	.	.	.	8g/	.
.	.	.	.	.	8g/	.
!	!	!	!	!	!LO:TX:t=P:problem=kreska pseudotaktowa	!
.	.	.	.	.	8g/	.
*	*	*	*	*	*custos:b	*
!	!	!	!	!	!LO:LB:g=original	!
=64-	=64-	=64-	=64-	=64-	=64-	=64-
2GG/	.	2GG/	.	4bb-\	8b-/	8GG/
.	.	.	.	.	8b-/	8GG/
.	.	.	.	8aa\	8b-/	8GG/
.	.	.	.	8gg\	8b-/	8GG/
2BB-/	.	2BB-/	.	4ff\	2dd\	8BB-/
.	.	.	.	.	.	8BB-/
.	.	.	.	4dd\	.	8BB-/
.	.	.	.	.	.	8BB-/
!LO:TX:t=P:problem=kreska pseudotaktowa	!	!LO:TX:t=P:problem=kreska pseudotaktowa	!	!	!LO:TX:t=P:problem=kreska pseudotaktowa	!LO:TX:t=P:problem=kreska pseudotaktowa
2D/	.	2D/	.	4.ff\	2r	2D/
.	.	.	.	8gg\	.	.
*	*	*	*	*custos:aa	*	*
!	!	!	!	!LO:LB:g=original	!	!
=65-	=65-	=65-	=65-	=65-	=65-	=65-
2F\	.	2F\	.	2aa\	4ff\	2r
.	.	.	.	.	8ee\	.
.	.	.	.	.	8dd\	.
2FF/	.	2FF/	.	2r	4cc\	8FF/
.	.	.	.	.	.	8FF/
.	.	.	.	.	4a/	8FF/
.	.	.	.	.	.	8FF/
2AA/	.	2AA/	.	2r	4.cc\	8AA/
.	.	.	.	.	.	8AA/
.	.	.	.	.	.	8AA/
.	.	.	.	.	8dd\	8AA/
*custos:C	*	*custos:C	*	*	*	*
!LO:LB:g=original	!	!LO:LB:g=original	!	!	!	!
=66-	=66-	=66-	=66-	=66-	=66-	=66-
2C/	-	2C/	-	4g/	2ee-X\	2C/
.	.	.	.	8g/	.	.
.	.	.	.	8g/	.	.
2GG/	.	2GG/	.	4b-/	2r	2GG/
.	.	.	.	4b-/	.	.
!	!	!	!	!	!LO:TX:t=P:problem=kreska pseudotaktowa	!LO:TX:t=P:problem=kreska pseudotaktowa
2D/	.	2D/	.	4a/	2r	2D/
!	!	!	!	!LO:TX:t=P:problem=kreska pseudotaktowa	!	!
.	.	.	.	4a/	.	.
=67-	=67-	=67-	=67-	=67-	=67-	=67-
2GG/	.	2GG/	.	4b-/	4dd\	2GG/
.	.	.	.	8b-/	8dd\	.
.	.	.	.	8b-/	8dd\	.
2DD/	.	2DD/	.	4dd\	4ff\	2r
.	.	.	.	4dd\	4ff\	.
2AA/	.	2AA/	.	4cc#X\	4eeny\	2r
!	!	!	!	!LO:TX:t=P:problem=kreska pseudotaktowa	!	!
.	.	.	.	4cc#\	4ee\	.
=68-	=68-	=68-	=68-	=68-	=68-	=68-
2D/	.	2D/	.	1dd	1dd	4D/
.	.	.	.	.	.	8D/
.	.	.	.	.	.	8D/
2F\	.	2F\	.	.	.	4F\
.	.	.	.	.	.	4F\
!LO:TX:t=P:problem=kreska pseudotaktowa	!	!LO:TX:t=P:problem=kreska pseudotaktowa	!	!	!LO:TX:t=P:problem=kreska pseudotaktowa	!
2E\	.	2E\	.	2r	2r	4E\
!	!	!	!	!	!	!LO:TX:t=P:problem=kreska pseudotaktowa
.	.	.	.	.	.	4E\
*	*	*	*	*	*	*custos:D
!	!	!	!	!	!	!LO:LB:g=original
=69-	=69-	=69-	=69-	=69-	=69-	=69-
1D	.	1D	.	4dd\	0.r	2.D/
.	.	.	.	8dd\	.	.
.	.	.	.	8dd\	.	.
.	.	.	.	4ff\	.	.
.	.	.	.	4ff\	.	4D/
2C/	.	2C/	.	4ee\	.	2C/
!	!	!	!	!LO:TX:t=P:problem=kreska pseudotaktowa	!	!
.	.	.	.	4ee\	.	.
=70-	=70-	=70-	=70-	=70-	=70-	=70-
1BB-	.	1BB-	.	2.dd\	.	2.BB-/
.	.	.	.	4dd\	.	4BB-/
2AA/	.	2AA/	.	2ccny\	.	2AA/
=71-	=71-	=71-	=71-	=71-	=71-	=71-
1GG	.	1GG	.	8b-/	4gg\	2.GG/
.	.	.	.	8b-/	.	.
.	.	.	.	8b-/	8gg\	.
.	.	.	.	8b-/	8gg\	.
.	.	.	.	8dd\	4bb-\	.
.	.	.	.	8dd\	.	.
.	.	.	.	8dd\	4bb-\	4GG/
.	.	.	.	8dd\	.	.
2FF/	.	2FF/	.	8ff\	4aa\	2FF/
.	.	.	.	8ff\	.	.
.	.	.	.	8ff\	4aa\	.
.	.	.	.	8ff\	.	.
*	*	*	*	*custos:ee	*	*
!	!	!	!	!LO:LB:g=original	!	!
=72-	=72-	=72-	=72-	=72-	=72-	=72-
1C	.	1C	.	2.ee\	2.gg\	2.C/
.	.	.	.	4ee\	4gg\	4C/
2D/	.	2D/	.	2.dd\	2ff\	2D/
=73-	=73-	=73-	=73-	=73-	=73-	=73-
2GG/	.	2GG/	.	.	2ee\	2GG/
.	.	.	.	4dd\	.	.
*col	*	*col	*	*	*	*
1AA	4	1AA	4	2.dd\	2.ee\	2.AA/
.	#	.	#	4cc#X\	4ff\	4AA/
*Xcol	*	*Xcol	*	*	*	*
=74-	=74-	=74-	=74-	=74-	=74-	=74-
1.DD	.	1.DD	.	1.dd	1.dd	1.DD
*	*	*	*	*	*custos:a	*
!	!	!	!	!	!LO:LB:g=original	!
=75-	=75-	=75-	=75-	=75-	=75-	=75-
*M2/2	*	*M2/2	*	*M2/2	*M2/2	*M2/2
*met(C|)	*	*met(C|)	*	*met(C|)	*met(C|)	*met(C|)
!	!	!	!	!	!	!LO:TX:b:t=adagio.
4r	.	4r	.	4r	4r	4r
!	!	!	!	!LO:TX:b:t=adagio.	!LO:TX:b:t=adagio.	!
4D/	.	4D/	.	4f/	4a/	4D/
!LO:TX:b:t=adagio.	!	!LO:TX:b:t=adagio.	!	!	!	!
4D/	.	4D/	.	4f/	4a/	4D/
4BB-/	.	4BB-/	.	4b-/	4dd\	4BB-/
=76-	=76-	=76-	=76-	=76-	=76-	=76-
2F\	.	2F\	.	2a/	2cc\	2F\
4r	.	4r	.	4r	4r	4r
!	!	!	!	!	!LO:TX:t=P:problem=kreska pseudotaktowa	!
4D/	.	4D/	.	4a/	4ff\	4D/
=77-	=77-	=77-	=77-	=77-	=77-	=77-
4.G\	6	4.G\	6	4.b-/	8ee-X\	4.G\
.	.	.	.	.	8dd\	.
.	5	.	5	.	2dd\	.
8F\	.	8F\	.	8a/	.	8F\
!	!	!	!	!LO:TX:t=P:problem=kreska pseudotaktowa	!	!
2E-X\	7	2E-X\	7	2g/	.	2E-X\
!	!	!	!	!	!LO:TX:t=P:problem=kreska pseudotaktowa	!
.	6	.	6	.	4cc\	.
=78-	=78-	=78-	=78-	=78-	=78-	=78-
[<1D	#	[<1D	#	2a/	2dd\	[<1D
.	.	.	.	4r	16r	.
.	.	.	.	.	16a/	.
.	.	.	.	.	16a/	.
.	.	.	.	.	16b-/	.
.	.	.	.	16r	16b-/	.
.	.	.	.	16a/	16cc\	.
.	.	.	.	16a/	16cc\	.
!	!	!	!	!LO:TX:t=P:problem=kreska pseudotaktowa	!LO:TX:t=P:problem=kreska pseudotaktowa	!
.	.	.	.	16b-/	16dd\	.
=79-	=79-	=79-	=79-	=79-	=79-	=79-
2.D/]	#	2.D/]	#	16b-/	16dd\	2.D/]
.	.	.	.	16ccny\	16eeny\	.
.	.	.	.	16cc\	16ee\	.
.	.	.	.	16dd\	16ff#X\	.
.	.	.	.	16dd\	16ff#\	.
.	.	.	.	16ee\	16gg\	.
.	.	.	.	16ee\	16gg\	.
.	.	.	.	16ff#X\	16aa\	.
*	*	*	*	*custos:ff	*	*
!	!	!	!	!LO:LB:g=original	!	!
.	.	.	.	16ff#X\	16aa\	.
.	.	.	.	16gg\	16bb-\	.
.	.	.	.	16gg\	16bb-\	.
.	.	.	.	16aa\	16ccc\	.
4C/	6	4C/	6	16aa\	4.ccc\	4C/
.	.	.	.	16bb-\	.	.
.	.	.	.	16bb-\	.	.
!	!	!	!	!LO:TX:t=P:problem=kreska pseudotaktowa	!	!
.	.	.	.	16ccc\	.	.
=80-	=80-	=80-	=80-	=80-	=80-	=80-
2C/	6	2C/	6	4.ccc\	.	2C/
.	.	.	.	.	8bb-\	.
.	.	.	.	.	8aa\	.
.	.	.	.	8bb-\	8gg\	.
4D/	#	4D/	#	2aa\	2ff#X\	16r
.	.	.	.	.	.	16D/
.	.	.	.	.	.	16D/
.	.	.	.	.	.	16Eny\
*	*	*	*	*	*	*custos:E
!	!	!	!	!	!	!LO:LB:g=original
8Eny\	.	8Eny\	.	.	.	16E\
.	.	.	.	.	.	16F#X\
8F#X\	.	8F#X\	.	.	.	16F#\
!	!	!	!	!	!	!LO:TX:t=P:problem=kreska pseudotaktowa
.	.	.	.	.	.	16G\
*custos:G	*	*custos:G	*	*	*custos:aa	*
!LO:LB:g=original	!	!LO:LB:g=original	!	!	!LO:LB:g=original	!
=81-	=81-	=81-	=81-	=81-	=81-	=81-
8G\	.	8G\	.	2r	2r	16G\
.	.	.	.	.	.	16A\
8A\	.	8A\	.	.	.	16A\
.	.	.	.	.	.	16B-\
8B-\	.	8B-\	.	.	.	16B-\
.	.	.	.	.	.	16c\
8c\	.	8c\	.	.	.	16c\
.	.	.	.	.	.	16d\
8d\	.	8d\	.	8r	4r	8d\
8D/	.	8D/	.	8ffny\	.	8D/
8C/	.	8C/	.	8ee\	8r	8C/
!	!	!	!	!	!LO:TX:t=P:problem=kreska pseudotaktowa	!
8AA/	.	8AA/	.	8cc#X\	8aa\	8AA/
=82-	=82-	=82-	=82-	=82-	=82-	=82-
2BB-/	6	2BB-/	6	2.dd\	8gg\	2BB-/
.	.	.	.	.	8dd\	.
.	5	.	5	.	2ffny\	.
2AA/	6 4	2AA/	6 4	.	.	2AA/
.	5 #	.	5 #	4cc#X\	4ee\	.
=83-	=83-	=83-	=83-	=83-	=83-	=83-
*M3/2	*	*M3/2	*	*M3/2	*M3/2	*M3/2
2.D/	.	2.D/	.	2.aa\	2.ff\	2.D/
4E\	.	4E\	.	4gg\	4gg\	4E\
2Fny\	.	2Fny\	.	2ff\	2aa\	2Fny\
=84-	=84-	=84-	=84-	=84-	=84-	=84-
2G\	.	2G\	.	1ee	2bb-\	2G\
2A\	.	2A\	.	.	2aa\	2A\
2B-\	6	2B-\	6	2dd\	2gg\	2B-\
=85-	=85-	=85-	=85-	=85-	=85-	=85-
1.A	.	1.A	.	1.ee	1.aa	1.A
=86-	=86-	=86-	=86-	=86-	=86-	=86-
2.F\	.	2.F\	.	2.a/	2.ccc\	2.F\
4G\	.	4G\	.	4b-/	4bb-\	4G\
2A\	.	2A\	.	2ccny\	4aa\	2A\
.	.	.	.	.	4bb-\	.
=87-	=87-	=87-	=87-	=87-	=87-	=87-
2B-\	.	2B-\	.	2dd\	2.gg\	2B-\
2c\	.	2c\	.	2ee\	.	2c\
.	.	.	.	.	4aa\	.
!	!	!	!	!	!	!LO:TX:t=P:problem=kreska pseudotaktowa
2d\	.	2d\	.	2ff\	4ff\	2d\
.	.	.	.	.	4gg\	.
*	*	*	*	*custos:gg	*	*
!	!	!	!	!LO:LB:g=original	!	!
=88-	=88-	=88-	=88-	=88-	=88-	=88-
2c\	.	2c\	.	2gg\	4ee\	4c\
.	.	.	.	.	4dd\	4B-\
2A\	.	2A\	.	2.aa\	4cc\	4A\
.	.	.	.	.	4b-/	4G\
4F\	.	4F\	.	.	4a/	4F\
!LO:TX:t=P:problem=kreska pseudotaktowa	!	!LO:TX:t=P:problem=kreska pseudotaktowa	!	!	!LO:TX:t=P:problem=kreska pseudotaktowa	!
4E\	.	4E\	.	4gg\	4cc\	4E\
*	*	*	*	*	*	*custos:D
!	!	!	!	!	!	!LO:LB:g=original
=89-	=89-	=89-	=89-	=89-	=89-	=89-
2D/	.	2D/	.	4ff\	4dd\	4D/
.	.	.	.	4ee\	4ee\	4C/
*col	*	*col	*	*	*	*
1BB-	5	1BB-	5	2.dd\	2ff\	2.BB-/
.	6	.	6	.	2gg\	.
!	!	!	!	!LO:TX:t=P:problem=kreska pseudotaktowa	!	!
.	.	.	.	4ee\	.	4C/
*Xcol	*	*Xcol	*	*	*	*
=90-	=90-	=90-	=90-	=90-	=90-	=90-
1.AA	.	1.AA	.	4cc\	1aa	1AA
.	.	.	.	4e/	.	.
.	.	.	.	4ee\	.	.
.	.	.	.	4dd\	.	.
.	.	.	.	4cc\	2r	2r
!	!	!	!	!LO:TX:t=P:problem=kreska pseudotaktowa	!	!
.	.	.	.	4b-/	.	.
*	*	*	*	*	*custos:a	*
!	!	!	!	!	!LO:LB:g=original	!
=91-	=91-	=91-	=91-	=91-	=91-	=91-
2FF/	.	2FF/	.	2a/	4r	4r
.	.	.	.	.	4a/	4FF/
2F\	.	2F\	.	2r	4aa\	4F\
.	.	.	.	.	4gg\	4E\
4D/	.	4D/	.	4r	4ff\	4D/
!LO:TX:t=P:problem=kreska pseudotaktowa	!	!LO:TX:t=P:problem=kreska pseudotaktowa	!	!LO:TX:t=P:problem=kreska pseudotaktowa	!	!
4C/	.	4C/	.	4cc\	4ee\	4C/
=92-	=92-	=92-	=92-	=92-	=92-	=92-
2.BB-/	.	2.BB-/	.	4ff\	4dd\	2.BB-/
.	.	.	.	4ee\	4cc\	.
.	.	.	.	4dd\	4dd\	.
4AA/	.	4AA/	.	4cc\	4ee\	4AA/
2GG/	.	2GG/	.	2dd\	4ff\	2GG/
!	!	!	!	!	!LO:TX:t=P:problem=kreska pseudotaktowa	!
.	.	.	.	.	4gg\	.
*custos:FF	*	*custos:FF	*	*	*	*
!LO:LB:g=original	!	!LO:LB:g=original	!	!	!	!
=93-	=93-	=93-	=93-	=93-	=93-	=93-
2FF/	6	2FF/	6	1dd	2aa\	2FF/
*col	*	*col	*	*	*	*
!LO:TX:t=P:problem=kreska pseudotaktowa	!	!LO:TX:t=P:problem=kreska pseudotaktowa	!	!	!	!
1EE	7 #	1EE	7 #	.	2.gg\	2.EE/
.	6 x	.	6 x	2cc#X\	.	.
.	.	.	.	.	4aa\	4FF/
*Xcol	*	*Xcol	*	*	*	*
=94-	=94-	=94-	=94-	=94-	=94-	=94-
2.DD/	.	2.DD/	.	4dd\	1.ff	2.DD/
.	.	.	.	4ee\	.	.
.	.	.	.	4ff\	.	.
4EE/	.	4EE/	.	4gg\	.	4EE/
2FF/	.	2FF/	.	2aa\	.	2FF/
=95-	=95-	=95-	=95-	=95-	=95-	=95-
2GG/	.	2GG/	.	2bb-\	1ee	2GG/
2AA/	.	2AA/	.	2aa\	.	2AA/
!LO:TX:t=P:problem=kreska pseudotaktowa	!	!LO:TX:t=P:problem=kreska pseudotaktowa	!	!LO:TX:t=P:problem=kreska pseudotaktowa	!	!
2BB-/	6	2BB-/	6	2gg\	2dd\	2BB-/
=96-	=96-	=96-	=96-	=96-	=96-	=96-
2AA/	-	2AA/	-	2aa\	1ee	2AA/
2.A\	.	2.A\	.	2.ccny\	.	2.A\
!	!	!	!	!	!LO:TX:t=P:problem=kreska pseudotaktowa	!
.	.	.	.	.	2ee\	.
!	!	!	!	!	!	!LO:TX:t=P:problem=kreska pseudotaktowa
4G\	.	4G\	.	4b-/	.	4G\
=97-	=97-	=97-	=97-	=97-	=97-	=97-
2F\	.	2F\	.	2a/	2ff\	2F\
2.F\	.	2.F\	.	2cc\	2.aa\	2.F\
.	.	.	.	2cc\	.	.
4E\	.	4E\	.	.	4gg\	4E\
*	*	*	*	*custos:dd	*	*
!	!	!	!	!LO:LB:g=original	!	!
=98-	=98-	=98-	=98-	=98-	=98-	=98-
2D/	.	2D/	.	2dd\	4ff\	4D/
.	.	.	.	.	4ee\	4C/
2BB-/	.	2BB-/	.	2dd\	4dd\	4BB-/
.	.	.	.	.	4cc\	4AA/
!	!	!	!	!	!	!LO:TX:t=P:problem=kreska pseudotaktowa
2GG/	.	2GG/	.	2dd\	4b-/	2GG/
!	!	!	!	!	!LO:TX:t=P:problem=kreska pseudotaktowa	!
.	.	.	.	.	4a/	.
*	*	*	*	*	*	*custos:C
!	!	!	!	!	!	!LO:LB:g=original
=99-	=99-	=99-	=99-	=99-	=99-	=99-
2C/	.	2C/	.	2cc\	4g/	4C/
.	.	.	.	.	4g/	4BB-/
2AA/	.	2AA/	.	2cc\	4a/	4AA/
.	.	.	.	.	4b-/	4GG/
2FF/	.	2FF/	.	2cc\	4cc\	4FF/
.	.	.	.	.	4ee\	4EE/
*	*	*	*	*	*custos:ff	*
!	!	!	!	!	!LO:LB:g=original	!
=100-	=100-	=100-	=100-	=100-	=100-	=100-
2DD/	.	2DD/	.	2b-/	4ff\	2DD/
.	.	.	.	.	4ee\	.
2G\	.	2G\	.	2b-/	4dd\	4G\
.	.	.	.	.	4dd\	4F\
!LO:TX:t=P:problem=kreska pseudotaktowa	!	!LO:TX:t=P:problem=kreska pseudotaktowa	!	!	!LO:TX:t=P:problem=kreska pseudotaktowa, między nutą a kropką	!
2E\	.	2E\	.	2b-/	2.gg\	4E\
!	!	!	!	!	!	!LO:TX:t=P:problem=kreska pseudotaktowa
.	.	.	.	.	.	4D/
=101-	=101-	=101-	=101-	=101-	=101-	=101-
2C/	.	2C/	.	2a/	.	2C/
.	.	.	.	.	4gg\	.
*col	*	*col	*	*	*	*
1D	#	1D	#	2a/	2.ff#X\	2.D/
!	!	!	!	!LO:TX:t=P:problem=kreska pseudotaktowa	!	!
.	.	.	.	2a/	.	.
.	.	.	.	.	4ff#\	4D/
*Xcol	*	*Xcol	*	*	*	*
=102-	=102-	=102-	=102-	=102-	=102-	=102-
2G\	.	2G\	.	4g/	2gg\	2G\
.	.	.	.	4gg\	.	.
2.c\	.	2.c\	.	2.ee\	2gg\	2.c\
!	!	!	!	!	!LO:TX:t=P:problem=kreska pseudotaktowa	!
.	.	.	.	.	2gg\	.
!LO:TX:t=P:problem=kreska pseudotaktowa	!	!LO:TX:t=P:problem=kreska pseudotaktowa	!	!LO:TX:t=P:problem=kreska pseudotaktowa	!	!
4B-\	.	4B-\	.	4dd\	.	4B-\
=103-	=103-	=103-	=103-	=103-	=103-	=103-
2A\	.	2A\	.	4cc\	2aa\	4A\
.	.	.	.	4b-/	.	4G\
2F\	.	2F\	.	4a/	2aa\	4F\
.	.	.	.	4cc\	.	4E\
!	!	!	!	!	!	!LO:TX:t=P:problem=kreska pseudotaktowa
2D/	.	2D/	.	4dd\	2aa\	2D/
!	!	!	!	!LO:TX:t=P:problem=kreska pseudotaktowa	!	!
.	.	.	.	4cc\	.	.
=104-	=104-	=104-	=104-	=104-	=104-	=104-
2G\	.	2G\	.	4b-/	2gg\	4G\
.	.	.	.	4a/	.	4F\
2E\	.	2E\	.	4g/	2gg\	4E\
.	.	.	.	4b-/	.	4D/
!LO:TX:t=P:problem=kreska pseudotaktowa	!	!LO:TX:t=P:problem=kreska pseudotaktowa	!	!LO:TX:t=P:problem=kreska pseudotaktowa, między nutą a kropką	!	!
2C/	.	2C/	.	2.cc\	2gg\	4C/
.	.	.	.	.	.	4BB-/
=105-	=105-	=105-	=105-	=105-	=105-	=105-
2AA/	.	2AA/	.	.	2ffny\	2AA/
.	.	.	.	4b-/	.	.
2D/	.	2D/	.	2a/	2ff\	4D/
.	.	.	.	.	.	4C/
2BB-/	.	2BB-/	.	2.dd\	2ff\	4BB-/
!	!	!	!	!	!	!LO:TX:t=P:problem=kreska pseudotaktowa
.	.	.	.	.	.	4AA/
*custos:GG	*	*custos:GG	*	*	*	*
!LO:LB:g=original	!	!LO:LB:g=original	!	!	!	!
=106-	=106-	=106-	=106-	=106-	=106-	=106-
2GG/	.	2GG/	.	.	2ee\	2GG/
.	4	.	4	4dd\	.	.
*col	*	*col	*	*	*	*
1AA	#	1AA	#	2.cc#X\	2ee\	2.AA/
.	.	.	.	.	2ee\	.
.	.	.	.	4cc#\	.	4AA/
*Xcol	*	*Xcol	*	*	*	*
=107-	=107-	=107-	=107-	=107-	=107-	=107-
1.DD	.	1.DD	.	1.dd	1.dd	1.DD
*	*	*	*	*custos:dd	*	*custos:D
!	!	!	!	!LO:LB:g=original	!	!LO:LB:g=original
=108-	=108-	=108-	=108-	=108-	=108-	=108-
*M2/2	*	*M2/2	*	*M2/2	*M2/2	*M2/2
*met(C|)	*	*met(C|)	*	*met(C|)	*met(C|)	*met(C|)
4D/	.	4D/	.	4r	2r	8D/
.	.	.	.	.	.	8C/
4BB-/	.	4BB-/	.	8dd\	.	8BB-/
.	.	.	.	8ccny\	.	8AA/
4.GG/	.	4.GG/	.	8b-/	8dd\	4.GG/
.	.	.	.	8a/	8cc\	.
.	.	.	.	8g/	8b-/	.
8FF#X/	.	8FF#X/	.	8a/	8a/	8FF#X/
=109-	=109-	=109-	=109-	=109-	=109-	=109-
1GG	.	1GG	.	4.b-/	4.g/	1GG
.	.	.	.	8a/	8a/	.
.	.	.	.	1g/	1b-\	.
=110-	=110-	=110-	=110-	=110-	=110-	=110-
[1Dl;	.	[1Dl;	.	.	.	[1DDl;
.	.	.	.	4f#X/	4a/	.
.	.	.	.	4e/	4g/	.
=111-	=111-	=111-	=111-	=111-	=111-	=111-
0D]	.	0D]	.	0f#X;	0a;	0DD]
==	==	==	==	==	==	==
*-	*-	*-	*-	*-	*-	*-
!!!system-decoration: [ww][(str)]<klav>
!!!RDF**kern: > = above
!!!RDF**kern: < = below
!!!RDF**kern: l = terminal long
!!!ENC: Andrzej Gręziak
!!!END: 2022-11-12
!!!ENC: Andrzej Kubiczek
!!!END: 2022-12-01
